Adwaita++/actions/22/timeline-insert.svg

<svg fill="none" height="22" viewBox="0 0 22 22" width="22" xmlns="http://www.w3.org/2000/svg">
  <path d="m7.50002 3 4.93398.03118-.0019.30141-.0002.03118c.0001.05817-.0199.11554-.0628.1659l-1.9883 2.31561c-.0854.1028-.2592.15427-.43266.15317s-.34658-.05476-.43074-.15863l-1.95886-2.34056c-.04224-.05089-.06164-.10851-.06063-.16668l.0002-.03118z" fill="#1c71d8"/>
  <path d="m14 7.00002v7.99998h.5052.0523c.0975.0008.1939-.0311.2787-.1l3.9025-3.2c.1732-.1375.2613-.4188.2613-.7s-.0881-.5625-.2613-.7l-3.9025-3.19998c-.0848-.069-.1812-.10104-.2787-.1h-.0523z" fill="#444"/>
  <path d="m6 8h-3v6h3z" fill="#444"/>
  <path d="m7.5 7.6c0-.33137.26863-.6.6-.6h3.8c.3314 0 .6.26863.6.6v3.8c0 .3314-.2686.6-.6.6h-3.8c-.33137 0-.6-.2686-.6-.6z" fill="#1c71d8"/>
</svg>

<svg xmlns="http://www.w3.org/2000/svg" fill="none" width="22" height="22" viewBox="0 0 22 22">
 <path fill="#1C71D8" d="M7.50002 3L12.434 3.03118L12.4321 3.33259L12.4319 3.36377C12.432 3.42194 12.412 3.47931 12.3691 3.52967L10.3808 5.84528C10.2954 5.94808 10.1216 5.99955 9.94814 5.99845C9.77468 5.99735 9.60156 5.94369 9.5174 5.83982L7.55854 3.49926C7.5163 3.44837 7.4969 3.39075 7.49791 3.33258L7.49811 3.3014L7.50002 3Z"/>
 <path fill="#444" d="M14 7.00002V15H14.5052H14.5575C14.655 15.0008 14.7514 14.9689 14.8362 14.9L18.7387 11.7C18.9119 11.5625 19 11.2812 19 11C19 10.7188 18.9119 10.4375 18.7387 10.3L14.8362 7.10002C14.7514 7.03102 14.655 6.99898 14.5575 7.00002H14.5052H14Z"/>
 <path fill="#444" d="M6 8H3V14H6V8Z"/>
 <path fill="#1C71D8" d="M7.5 7.6C7.5 7.26863 7.76863 7 8.1 7H11.9C12.2314 7 12.5 7.26863 12.5 7.6V11.4C12.5 11.7314 12.2314 12 11.9 12H8.1C7.76863 12 7.5 11.7314 7.5 11.4V7.6Z"/>
</svg>
